X:1
T:Title
L:1/8
Q:1/4=100
M:6/8
K:G
V:1 treble nm="Church Organ, Staff"
V:1
 GAB B3 | Gdc B3 | cBA GEG | GAG D3 | EEE GFE | FBB- B3/2 z/ c | BAG ECE- | EDC- C3/2 z/ z |] %8
w: By~A.~Redhead * * *||||||||

